X:1
T:Hymn of Promise
T:Hymn of Promise
T:Natalie Sleeth
T:Natalie Sleeth, 1986
T:© 1986 Hope Publishing Company Courtesy of the Cyber Hymnal™
C:Natalie Sleeth
Z:© 1986 Hope Publishing Company
Z:Courtesy of the Cyber Hymnal™
%%score ( 1 2 ) ( 3 4 )
L:1/8
Q:1/4=105
M:3/4
K:F
V:1 treble 
V:2 treble 
V:3 bass 
V:4 bass 
V:1
 CC | [A,F]3 G AG | F2 C2 CC | [B,G]3 A BA | [B,G]4 CC | [B,E]3 F GF | E2 C2 CC | [A,F]3 C FG | %8
w: 1.~In the|bulb there is a|flow- er; in the|seed, an ap- ple|tree; In co-|coons, a hid- den|prom- ise: but- ter-|flies will soon be|
w: 2.~There’s a|song in ev- ery|si- lence, seek- ing|word and mel- o-|dy; There’s a|dawn in ev- ery|dark- ness, bring- ing|hope to you and|
w: 3.~In our|end is our b-|egin- ning; in our|time, in- fin- i-|ty; In our|doubt there is be-|liev- ing; in our|life, e- ter- ni-|
 [FA]4 F[_EF] | B3 c dB | [Fc]2 F2 FF | B3 B AG | [DF]4 FE | D3 F Bd | c2 [DF]2 [EG][DA] | %15
w: free! In the|cold and snow of|win- ter there’s a|spring that waits to|be, Un- re-|vealed un- til its|sea- son, some- thing|
w: me. From the|past will come the|fu- ture; what it|holds, a mys- te-|ry, Un- re-|vealed un- til its|sea- son, some- thing|
w: ty, In our|death, a re- sur-|rect- ion; at the|last, a vic- to-|ry, Un- re-|vealed un- til its|sea- son, some- thing|
 [B,B][CA] [DG]2 G2 | F4 |] %17
w: God a- lone can|see.|
w: God a- lone can|see.|
w: God a- lone can|see.|
V:2
 x2 | x4 C2 | A,4 x2 | x4 D2 | x6 | x6 | B,4 x2 | x6 | x6 | D4 E2 | x2 F2 x2 | D4 ^C2 | x6 | %13
 x4 E2 | (FE) x4 | x4 (CB,) | (B,2 A,2) |] %17
V:3
 C,C, | (F,,C, F,2) C,2 | (F,,C, F,2) C,2 | (F,,D, G,2) D,2 | (F,,D, G,2) C,C, | (F,,C, G,2) C,2 | %6
 (F,,C, G,2) C,2 | (F,,C, F,2) C,2 | (F,,C,E,F, A,)F, | (B,,F, B,2) G,2 | (A,,F, C2 [D,A,]2) | %11
 G,,D, E,2- [A,,E,]2 | (D,E,F,E,) D,C, | (B,,F, B,2) G,2 | A,,2 [D,A,]2 D,2- | D,2 F,2 [C,E,]2 | %16
 (D,2 C,2) |] %17
V:4
 x2 | x6 | x6 | x6 | x6 | x6 | x6 | x6 | x6 | x6 | x6 | x6 | x6 | x6 | x6 | G,,4 x2 | F,,4 |] %17

